X:124
T:[untitled]
Z:Jack Campin - http://www.campin.me.uk
S:Blaikie MS (NLS MS.1578) p37, Blaikie #118
M:3/4
L:1/8
V:1 midi program 1 74
V:2 midi program 1 46 bass middle = d transpose -24
Q:1/4=90
K:E Minor
[V:1] A2|B>B e2 B2 |^c>B A2 A2 |B>B e2 B2|^c>B B2
[V:2] z2|e2  E2 e2 | g2  f2 d2 |g2  g2 g2| b2  B2
%
[V:1] E2|G>G F2 d>B| A>G F2 zB,|G>A B2 EG| F>E E2|]
[V:2] z2|e2  B2 G2 | d2  d2 z2 |e2  g2 e2| B2  e2|]
W:Transcription (c) Jack Campin 2009, no mirroring or republication without permission

